X:1
T:Monaco, 87.87.87
T:Monaco, 87.87.87
T:Thomas Morley (1845-1891)
T:Public Domain Courtesy of the Cyber Hymnal™
C:Thomas Morley (1845-1891)
Z:Public Domain
Z:Courtesy of the Cyber Hymnal™
%%score ( 1 2 ) ( 3 4 )
L:1/8
Q:1/4=110
M:4/4
K:Ab
V:1 treble 
V:2 treble 
V:3 bass 
V:4 bass 
V:1
|: [CA]2 (GF) E2 [Ec]2 | [EB]2 [EA]2 (ed) [Ec]2 | F2 [=EG]2 [FA]2 [_Ec]2 | [EB]2 [=DB]2 [EB]4 :| %4
 [CA]2 (GF) E2 [Ec]2 | [EB]2 [EA]2 (ed) [Ec]2 | [Fe]2 [Fd]2 [EG]2 [CA]2 | [FB]2 (AG) [EA]4 |] %8
V:2
|: x2 D2 E2 x2 | x4 E2 x2 | F2 x6 | x8 :| x2 D2 E2 x2 | x4 E2 x2 | x8 | x2 E2 x4 |] %8
V:3
|: [A,,A,]2 [D,A,]2 [C,A,]2 [A,,A,]2 | [E,G,]2 [C,A,]2 [B,,G,]2 [A,,A,]2 | %2
 [A,C]2 [G,B,]2 [F,C]2 (A,G,) | [B,,F,]2 [B,,A,]2 [E,G,]4 :| [A,,A,]2 [D,A,]2 [C,A,]2 [A,,A,]2 | %5
 [E,G,]2 [C,A,]2 [B,,G,]2 [A,,A,]2 | [C,=A,]2 [D,B,]2 [E,B,]2 [F,A,]2 | [D,D]2 [E,B,]2 [A,,C]4 |] %8
V:4
|: x8 | x8 | x6 A,,2 | x8 :| x8 | x8 | x8 | x8 |] %8

